X:1
T:Title
%%score { 1 | 2 }
L:1/8
Q:1/4=96
M:4/4
K:Ab
V:1 treble nm="Grand Piano"
V:2 bass 
V:1
 [CE]2 [Ec]>[DB] [CA]3 [CE] | [A,C][B,D][CE][DF] [CE]4 | F2 F>F F3 F | [=DB][DF][EG][FA] [EG]4 | %4
w: John~R.~Sweney * * * *||||
 [CA]2 [CE]>[CE] [Ec]3 [EB] | [FA][=EG][FB][FA] [DF]4 | [Fd]2 [FA]>[=EB] [_Ec]3 [CA] | BGFG [CA]4 | %8
w: ||||
 [Ec]2 [=D_c]>[E=c] [CA]4 | B2 A>F [CE]4 | E2 FG A3 A | [=DA][DG][Dc][DB] B4 | c2 _c>=c d3 c | %13
w: |||||
 [=Ec][EG][Ec][EB] [FA]4 | [FA]2 [Fd]>[DF] [CE]3 [CA] | BGFG [CA]4 |] %16
w: |||
V:2
 [A,,A,]2 [A,,A,]>[A,,A,] [A,,E,]3 [A,,A,] | [A,,E,][A,,E,][A,,A,][A,,A,] [A,,A,]4 | %2
 [D,A,D]2 [D,A,D]>[D,A,D] [D,A,D]3 [D,F,D] | [B,,F,][B,,B,][B,,B,][B,,B,] [E,B,]4 | %4
 [A,,A,]2 [A,,A,]>[A,,A,] [A,,A,]3 [C,A,] | [D,A,][D,A,][D,F,][D,A,] [D,A,]4 | %6
 [D,A,]2 [D,A,]>[D,A,] [A,,A,]3 [A,,A,] | [E,G,D][E,B,D][E,A,D][E,D] [A,,E,]4 | %8
 [A,,A,]2 [A,,A,]>[A,,A,] [A,,E,]4 | [D,F,D]2 [D,F,D]>[D,A,D] [A,,A,]4 | %10
 [E,G,]2 [E,A,=D][E,B,_D] [F,A,C]3 [F,A,C] | [B,,B,][B,,B,][B,,A,][B,,A,] [E,G,E]4 | %12
 [A,E]2 [A,=D]>[A,E] [A,F]3 [A,E] | [C,G,][C,C][C,C][C,C] [F,C]4 | %14
 [D,D]2 [D,A,]>[D,A,] [A,,A,]3 [A,,A,] | [E,G,D][E,B,D][E,A,D][E,D] [A,,E,]4 |] %16

